X: 34444
T: Ricky's White Face
R: reel
M: 4/4
K: Cmajor
E2 DC EGAG|GEDC A,CCD|E2 DC EGAG|GAcG ECCD|
E2 DC EGAG|GEDC A,CCE|D2 (3 DDD ADGE|GAcd ec c2:|
AG G2 EGDG|ECDC A,CCc|AG G2 EGDG|GAcG EC C2|
A2 AG EGDG|ECDC A,CEC|D2 (3 DDD ADGE|GAcd ec c2:|

